X: 1
T: Bachelor's Walk
M: 4/4
L: 1/8
R: reel
K: Bmin
f3b|:fBBA FAfB|e~A3 EA_ce|fBBA FAfB|ee^df eA_ce|
fBBA FAfB|e~A3 EA_ce|faef ee_ce|1dB_cA Befb:|2dB_cA BA_cA||
K: Dmaj
|:~d3f afdf|~e3f eAce|d~A3 afef|e^def gedf|
~d3f afdf|~e3f eAce|~f3d ~e3c|1dBcA BAcA:|2dBcA Befb||
